icons/coupon-2-fill.svg

<svg viewBox="0 0 24 24" fill="currentColor" xmlns="http://www.w3.org/2000/svg"><path d="M14.0049 2.99966V20.9997H3.00488C2.4526 20.9997 2.00488 20.5519 2.00488 19.9997V14.4997C3.38559 14.4997 4.50488 13.3804 4.50488 11.9997C4.50488 10.619 3.38559 9.49966 2.00488 9.49966V3.99966C2.00488 3.44738 2.4526 2.99966 3.00488 2.99966H14.0049ZM16.0049 2.99966H21.0049C21.5572 2.99966 22.0049 3.44738 22.0049 3.99966V9.49966C20.6242 9.49966 19.5049 10.619 19.5049 11.9997C19.5049 13.3804 20.6242 14.4997 22.0049 14.4997V19.9997C22.0049 20.5519 21.5572 20.9997 21.0049 20.9997H16.0049V2.99966Z"/></svg>

<svg xmlns="http://www.w3.org/2000/svg" viewBox="0 0 24 24">
    <g>
        <path fill="none" d="M0 0h24v24H0z"/>
        <path d="M14 3v18H3a1 1 0 0 1-1-1v-5.5a2.5 2.5 0 1 0 0-5V4a1 1 0 0 1 1-1h11zm2 0h5a1 1 0 0 1 1 1v5.5a2.5 2.5 0 1 0 0 5V20a1 1 0 0 1-1 1h-5V3z"/>
    </g>
</svg>
